svg/300/sharp/door_open.svg

<svg xmlns="http://www.w3.org/2000/svg" width="48" height="48" viewBox="0 -960 960 960"><path d="M440-451.923q12.231 0 20.154-8.423T468.077-480q0-12.231-7.923-20.154T440-508.077q-11.231 0-19.654 7.923T411.923-480q0 11.231 8.423 19.654T440-451.923ZM265.385-140.001v-45.384l289.231-40.538v-517.463l-276.922-34.538v-44.768L600-777.154v589.461l-334.615 47.692Zm-116.152 0v-45.384h70.768v-637.307h519.998v637.307h70.768v45.384H149.233Zm116.152-45.384h429.23v-591.923h-429.23v591.923Z"/></svg>

<svg xmlns="http://www.w3.org/2000/svg" width="48" height="48" viewBox="0 -960 960 960"><path d="M440-451.92q12.23 0 20.15-8.43 7.93-8.42 7.93-19.65 0-12.23-7.93-20.15-7.92-7.93-20.15-7.93-11.23 0-19.65 7.93-8.43 7.92-8.43 20.15 0 11.23 8.43 19.65 8.42 8.43 19.65 8.43ZM265.39-140v-45.39l289.23-40.53v-517.47l-276.93-34.53v-44.77L600-777.15v589.46L265.39-140Zm-116.16 0v-45.39H220v-637.3h520v637.3h70.77V-140H149.23Zm116.16-45.39h429.22v-591.92H265.39v591.92Z"/></svg>
